X:1
T:Away, thou shalt not love me - Wilbye
T:James Gibb editions
T:#
%%score [ 1 2 3 ] { ( 4 5 ) | 6 }
L:1/8
Q:1/4=132
M:4/4
K:C
V:1 treble nm="Soprano 1" snm="S1"
V:2 treble nm="Soprano 2" snm="S2"
V:3 treble nm="Alto" snm="A"
V:4 treble nm="Practice"
V:5 treble 
V:6 bass 
V:1
 d4 dc"^Away, thou shalt not love me"BA | G4 z2 g2 | gfed c2"^John Wilbye\n(1574-1638)" B2 | %3
w: A- way, a- way, a-|way; a-|way, a- way, a- way, thou|
[M:4/4] e2 e2 e4 | d2 d2 dcBA | G4 z2 g2 | gfed c3 B | A2 G2 (G4- | G2 ^FE F4) | G2 d3 d c2 | %10
w: shalt not love|me, a- way, a- way, a-|way, a-|way, a- way, a- way, thou|shalt not love||me. So shall my|
 B2 B2 A4 | G2 G2 A3 B | c4 G4 | G8 | G8 | z2 d3 d c2 | B2 B2 A4 | G2 G2 A3 B | c2 G2 G4 | G4 z4 | %20
w: love seem great-|er, so shall my|love seem|great-|er,|so shall my|love seem great-|er, so shall my|love seem great-|er,|
 z2 d3 d ^c2 | d2 =f2 e4 | d2 d3 d B2 | ^c2 d4 c2 | d2 d3 =c B2 | A4 z2 G2- | GG ^F2 G2 B2 | %27
w: and I shall|love the bet-|ter, and I shall|love the bet-|ter. Shall it be|so? shall|* it be so, what|
 A4 B2 B2 | c4 B4 | z2 G2 G2 ^F2 | G2 d2 c3 B | A2 B2 A4 | B4 z4 | g2 g4 ^f2 | g2 e2 d4 | %35
w: say you? what|say you?|Why speak you|not, why speak you|not, I pray|you?|Nay then I|know you love|
 B2 c2 d4 | e4 d2 d2- | d2 ^c2 d2 B2 | A4 B2 G2 | A4 G2 g2 | f4 e4 | d2 B2 A4 | B4 d2 d2- | %43
w: me, you love|me, nay then|* I know you|love me, you|love me, That|so you|may dis- prove|me, nay then|
 d2 ^c2 d4- | d2 =c2 A4 | G4 z4 | A2 A4 ^G2 | A4 (A=G) G2- | G2 ^F2 G2 B2 | c2 d2 e2 c2 | %50
w: * I know|* you love|me,|nay then I|know you * love|* * me, that|so you may dis-|
[Q:1/4=130] A2[Q:1/4=128] B[Q:1/4=127]B[Q:1/4=124] c3[Q:1/4=122] B | %51
w: prove me, that so you|
[Q:1/4=120] A2[Q:1/4=116] G4[Q:1/4=113] ^F2 |[Q:1/4=112] G16 |] %53
w: may dis- prove|me.|
V:2
 z4 z2 d2 | dcBA G4 | z2 g2 gfed |[M:4/4] c3 B A2 G2 | ^F4 D2 d2 | dcBA G4 | z2 g2 gfed | %7
w: A-|way, a- way, a way;|a- way, a- way, a-|way, thou shalt not|love me, a-|way, a- way, a- way,|a- way, a- way, a-|
 c3 c B2 c2 | d8 | B4 z4 | z8 | z2 g3 g f2 | e2 e2 d4 | c2 c3 c B2 | c2 e3 d c2 | B2 A2 (^FGAF) | %16
w: way, thou shalt not|love|me.||So shall my|love seem great-|er, And I shall|love, and I shall|love the bet\- * * *|
 G4 z4 | z2 g3 g f2 | e2 e2 d4 | c2 c3 c B2 | A2 A2 G4 | ^F2 A3 A E2 | ^F2 F2 G3 =F | E2 F2 E4 | %24
w: ter,|So shall my|love seem great-|er, and I shall|love the bet-|ter, and I shall|love, and I shall|love the bet-|
 ^F4 z4 | z2 d3 c B2 | A4 z2 G2- | GG ^F2 G2 d2 | e4 d2 d2 | d2 ^c2 d4- | d2 G2 G2 A2 | %31
w: ter.|shall it be|so? shall|* it be so, what|say you? Why|speak you not,|* why speak you|
 ^F2 G2 G2 F2 | z4 d2 d2- | d2 ^c2 d4- | d2 (cB) A4 | G4 z4 | A2 A4 ^G2 | A4 (A=G) (G2- | %38
w: not, I pray you?|Nay then|* I know|* you * love|me,|nay then I|know you * love|
 G2 ^F2) G2 B2 | c2 d2 e2 c2 | A2 BB c3 B | A2 G4 ^F2 | G4 z4 | g2 g4 ^f2 | g2 e2 d4 | B2 c2 d4 | %46
w: * * me, That|so you may dis-|prove me, that so you|may dis- prove|me.|nay then I|know you love|me, you love|
 e4 d2 d2- | d2 ^c2 d2 B2 | A4 B2 G2 | A4 G2 g2 | f4 e4 | d2 B2 A4 | B16 |] %53
w: me, nay then|* I know you|love me, you|love me, that|so you|may dis- prove|me.|
V:3
 z8 | z2 G2 GFED | C6 G,2 |[M:4/4] C4 C4 | D4 D4 | z2 G2 GFED | C6 G,2 | C4 E4 | D8 | G,4 z4 | %10
w: |A- way, a- way, a-|way, thou|shalt not|love me,|a- way, a- way, a-|way, thou|shalt not|love|me.|
 z2 G3 G F2 | E2 E2 D4 | C2 C3 C B,2 | C4 G4 | C8 | D8 | z2 G3 G =F2 | E2 E2 D4 | C2 C3 C B,2 | %19
w: So shall my|love seem great-|er, And I shall|love the|bet-|er,|so shall my|love seem great-|er, and I shall|
 C2 C2 G4 | F2 D2 E2 E2 | D2 D3 D ^C2 | D4 G,4 | A,8 | D4 z2 G2 | D2 D2 G,2 G,2 | D4 G,2 G2 | %27
w: love the bet-|ter, and I shall|love, and I shall|love the|bet-|ter. Shall|it be so? what|say you? shall|
 D2 D2 G,2 G,2 | C4 G,2 G2 | E4 D4 | B,4 C4 | D4 D4 | G2 G4 ^F2 | G2 E2 D4 | B,2 C2 D4 | %35
w: it be so? what|say you? Why|speak you|not, I|pray you?|Nay then I|know you love|me, you love|
 E4 D2 D2- | D2 ^C2 D2 B,2 | A,4 B,2 G,2 | D4 G,2 G2 | =F4 E4 | D4 C4 | D8 | G,2 G2 G2 ^F2 | %43
w: me, nay then|* I know you|love me, you|love me, That|so you|may dis-|prove|me, nay then I|
 G2 E2 D4 | B,2 C2 D4 | E4 D2 D2- | D2 ^C2 D2 B,2 | A,4 B,2 G,2 | D4 G,2 G2 | =F4 E4 | D4 C4 | D8 | %52
w: know you love|me, you love|me, nay then|* I know you|love me, you|love me, that|so you|may dis-|prove|
 G,16 |] %53
w: me.|
V:4
 d4 dc BA | G2 x2 x2 g2 | gf ed c2 B2 |[M:4/4] e2 e2 e4 | d2 d2 dc BA | G2 G2 x2 g2 | gf ed c3 B | %7
 A2 G2 G4- | G2 ^FE F4 | G2 d3 d c2 | B2 B2 A4 | G2 G2 A3 B | c4 G4 | G4 G4 | G8 | x2 d3 d c2 | %16
 B2 B2 A4 | G2 G2 A3 B | c2 G2 G4 | G4 x4 | x2 d3 d ^c2 | d2 =f2 e4 | d2 d3 d B2 | ^c2 d4 c2 | %24
 d2 d3 =c B2 | A4 z2 G2- | GG ^F2 G2 B2 | A4 B2 B2 | c4 B4 | x2 G2 G2 ^F2 | G2 d2 c3 B | A2 B2 A4 | %32
 B4 x4 | g2 g4 ^f2 | g2 e2 d4 | B2 c2 d4 | e4 d2 d2- | d2 ^c2 d2 B2 | A4 B2 G2 | A4 G2 g2 | f4 e4 | %41
 d2 B2 A4 | B4 d2 d2- | d2 ^c2 d4- | d2 =c2 A4 | G4 x4 | A2 A4 ^G2 | A4 A=G G2- | G2 ^F2 G2 B2 | %49
 c2 d2 e2 c2 | A2 BB c3 B | A2 G4 ^F2 | G16 |] %53
V:5
 x4 x2 d2 | dcBA G4 | x2 g2 gfed |[M:4/4] c3 B A2 G2 | ^F4 D2 d2 | dcBA G4 | x2 g2 gfed | %7
 c3 c B2 c2 | d8 | B4 x4 | x8 | x2 g3 g f2 | e2 e2 d4 | c2 c3 c B2 | c2 e3 d c2 | B2 A2 ^FGAF | %16
 G2 x2 x4 | x2 g3 g f2 | e2 e2 d4 | c2 c3 c B2 | A2 A2 G4 | ^F2 A3 A E2 | ^F2 F2 G3 =F | E2 F2 E4 | %24
 ^F4 x4 | z2 d3 c B2 | A4 x2 G2- | GG ^F2 G2 d2 | e4 d2 d2 | d2 ^c2 d4- | d2 G2 G2 A2 | %31
 ^F2 G2 G2 F2 | x4 d2 d2- | d2 ^c2 d4- | d2 cB A4 | G4 x4 | A2 A4 ^G2 | A4 A=G G2- | G2 ^F2 G2 B2 | %39
 c2 d2 e2 c2 | A2 BB c3 B | A2 G4 ^F2 | G4 x4 | g2 g4 ^f2 | g2 e2 d4 | B2 c2 d4 | e4 d2 d2- | %47
 d2 ^c2 d2 B2 | A4 B2 G2 | A4 G2 g2 | f4 e4 | d2 B2 A4 | B16 |] %53
V:6
 z8 | z2[I:staff -1] G2 GF[I:staff +1] ED | C6 G,2 |[M:4/4] C4 C4 | D4 D4 | %5
 z2[I:staff -1] G2 GF[I:staff +1] ED | C6 G,2 | C4 E4 | D8 | G,4 z4 | x2[I:staff -1] G3 G F2 | %11
[I:staff +1] E2 E2 D4 | C2 C3 C B,2 | C4[I:staff -1] G4 |[I:staff +1] C8 | D8 | %16
 x2[I:staff -1] G3 G =F2 |[I:staff +1] E2 E2 D4 | C2 C3 C B,2 | C2 C2[I:staff -1] G4 | %20
 F2[I:staff +1] D2 E2 E2 | D2 D3 D ^C2 | D4 G,4 | A,8 | D4 x2[I:staff -1] G2 | %25
[I:staff +1] D2 D2 G,2 G,2 | D4 G,2[I:staff -1] G2 |[I:staff +1] D2 D2 G,2 G,2 | %28
 C4 G,2[I:staff -1] G2 |[I:staff +1] E4 D4 | B,4 C4 | D4 D4 |[I:staff -1] G2 G4 ^F2 | %33
 G2[I:staff +1] E2 D4 | B,2 C2 D4 | E4 D2 D2- | D2 ^C2 D2 B,2 | A,4 B,2 G,2 | %38
 D4 G,2[I:staff -1] G2 | =F4[I:staff +1] E4 | D4 C4 | D8 | G,2[I:staff -1] G2 G2 ^F2 | %43
 G2[I:staff +1] E2 D4 | B,2 C2 D4 | E4 D2 D2- | D2 ^C2 D2 B,2 | A,4 B,2 G,2 | %48
 D4 G,2[I:staff -1] G2 | =F4[I:staff +1] E4 | D4 C4 | D8 | G,16 |] %53

